public/assets/img/products/safepods/key-advs/icon5.svg

<svg id="eXqJYa9Z2Or1" xmlns="http://www.w3.org/2000/svg" xmlns:xlink="http://www.w3.org/1999/xlink" viewBox="0 0 64 52" shape-rendering="geometricPrecision" text-rendering="geometricPrecision" project-id="8b9c95506e0e427099dfbeb051aea860" export-id="1126d540a06546b1a05ff2be90dea86b" cached="false">
<style><![CDATA[
#eXqJYa9Z2Or2_to {animation: eXqJYa9Z2Or2_to__to 4225.352112676057ms linear infinite alternate-reverse forwards}@keyframes eXqJYa9Z2Or2_to__to { 0% {transform: translate(32.895415px,29.4092px)} 26.666667% {transform: translate(32.895415px,29.4092px)} 50% {transform: translate(34.432001px,29.4092px)} 73.333333% {transform: translate(48.432001px,29.4092px)} 100% {transform: translate(48.432001px,29.4092px)}} #eXqJYa9Z2Or5_to {animation: eXqJYa9Z2Or5_to__to 4225.352112676057ms linear infinite alternate-reverse forwards}@keyframes eXqJYa9Z2Or5_to__to { 0% {transform: translate(16.681801px,14.6365px)} 26.666667% {transform: translate(31.681801px,14.6365px)} 100% {transform: translate(31.681801px,14.6365px)}}
]]></style>
<g id="eXqJYa9Z2Or2_to" transform="translate(48.432001,29.4092)"><path d="M55.5456,14.6365v27.2727c0,.6028-.2394,1.1808-.6656,1.6071-.4263.4262-1.0043.6656-1.6071.6656h-5.6818c-.6028,0-1.1809-.2394-1.6071-.6656s-.6656-1.0043-.6656-1.6071v-2.2727" transform="translate(-50.432001,-29.4092)" fill="none" stroke="#fff" stroke-width="2" stroke-linecap="round" stroke-linejoin="round"/></g><path d="M7.81836,51v-50h9.09094l6.8182,13.6364v36.3636" fill="none" stroke="#fff" stroke-width="2" stroke-linecap="round" stroke-linejoin="round"/><path d="M1,51h29.5455" fill="none" stroke="#fff" stroke-width="2" stroke-linecap="round" stroke-linejoin="round"/><g id="eXqJYa9Z2Or5_to" transform="translate(31.681801,14.6365)"><path d="M1,14.6365h61.3636" transform="translate(-31.681801,-14.6365)" fill="none" stroke="#fff" stroke-width="2" stroke-linecap="round" stroke-linejoin="round"/></g><path d="M7.81836,32.8181h15.90914" fill="none" stroke="#fff" stroke-width="2" stroke-linecap="round" stroke-linejoin="round"/></svg>

<svg width="64" height="52" viewBox="0 0 64 52" fill="none" xmlns="http://www.w3.org/2000/svg">
<path d="M1 51H30.5455M1 14.6364H62.3636M7.81818 32.8182H23.7273M55.5454 14.6364V41.9091C55.5454 42.5119 55.306 43.0899 54.8798 43.5162C54.4536 43.9424 53.8755 44.1818 53.2727 44.1818H47.5909C46.9881 44.1818 46.4101 43.9424 45.9838 43.5162C45.5576 43.0899 45.3182 42.5119 45.3182 41.9091V39.6364M7.81818 51V1H16.9091L23.7273 14.6364V51" stroke="white" stroke-width="2" stroke-linecap="round" stroke-linejoin="round"/>
</svg>
